**kern	**kern
*staff2	*staff1
*clefF4	*clefG2
*k[b-]	*k[b-]
*M6/8	*M6/8
*F:	*F:
16FLL	8f 8ff
16c	.
16A	8r
16c	.
16F	(8f 8ff
16cJJ	.
16BB-LL	4ff 4fff
16d	.
16B-	.
16d	.
16F	8dd) 8ddd
16dJJ	.
=161	=161
16AALL	(4cc 4ccc
16c	.
16A	.
16c	.
16F	8a) 8aa
16cJJ	.
16CLL	8.gL 8.gg
16c	.
16E	.
16c	16ak 16aa
16G	8b-J 8bb-
16cJJ	.
=162	=162
16FFLL	(8aL 8aa
16c	.
16F	8f 8ff
16c	.
16A	8ffJ) 8fff
16cJJ	.
16BB-LL	(4ff 4fff
16d	.
16B-	.
16d	.
16F	8dd) 8ddd
16dJJ	.
=163	=163
16AALL	(4cc 4ccc
16c	.
16A	.
16c	.
16F	8a) 8aa
16cJJ	.
16CLL	(8gL 8gg
16c	.
16G	8cc) 8ccc
16c	.
16B-	8e'J 8ee'
16cJJ	.
=164	=164
16FFLL	4f 4ff
16c	.
16A	.
16c	.
16F	(8f 8ff
16cJJ	.
16BB-LL	4ff 4fff
16d-	.
16B-	.
16d-	.
16F	8dd- 8ddd-
16d-JJ	.
=165	=165
16AA-LL	4cc 4ccc
16c	.
16A-	.
16c	.
16F	8a-) 8aa-
16cJJ	.
16CLL	8.gL 8.gg
16c	.
16E	.
16c	16a-k 16aa-
16G	8b-J 8bb-
16cJJ	.
=166	=166
*^	*
16FFLL	4.r	(8a-L 8aa-
16c	.	.
16F	.	8f 8ff
16A-	.	.
16F	.	8ffJ) 8fff
16A-JJ	.	.
(16FLL	4.D-	(4ff 4fff
16A-	.	.
16F	.	.
16A-	.	.
16F	.	8dd-) 8ddd-
16A-JJ)	.	.
*v	*v	*
=167	=167
*^	*
(16FLL	4.D-	(4dd- 4ddd-
16A-	.	.
16F	.	.
16A-	.	.
16F	.	8cc) 8ccc
16A-JJ)	.	.
16FLL	8D-L	(4cc 4ccc
16A-	.	.
16F	8D-	.
16G	.	.
16F	8D-J	8b) 8bb
16GJJ	.	.
=168	=168	=168
16ELL	8C	8cc 8ccc
16G	.	.
16E	8r	8r
16G	.	.
16E	8C	8c 8cc
16GJJ	.	.
16FLL	8D-	(4c 4cc
16G	.	.
16F	8r	.
16G	.	.
16F	8D-	8B) 8b
16GJJ	.	.
=169	=169	=169
16ELL	8C	8c 8cc
16G	.	.
16E	8r	8r
16G	.	.
16E	8C	8c 8cc
16GJJ	.	.
16FLL	8D-	(4c 4cc
16G	.	.
16F	8r	.
16G	.	.
16F	8D-	8B) 8b
16GJJ	.	.
*v	*v	*
=170	=170
4C 4E	16cLL 16cc
.	16g
.	16e
.	16cc
8r	16a-
.	16fJJ
4C	16ccLL
.	16g
.	16e
.	16a-
8r	16f
.	16cJJ
=171	=171
4C	16gLL
.	16e
.	16c
.	16f
8r	16c
.	16A-JJ
*	*clefF4
4CC	16eLL
.	16c
.	16G
.	16c
8r	16A-
.	16FJJ
=172	=172
4CC	16cLL
.	16G
.	16E
.	16c
8r	16A-
.	16FJJ
4CC	16cLL
.	16G
.	16E
.	16c
8r	16A-
.	16FJJ
=173	=173
8CC	(16ELL 16G 16c
.	16Cn
8r	16BB
.	16C
8GG'	16E
.	16CJJ)
8FF'L	16GLL
.	16C
8EE'	16A
.	16C
8DD'J	16B
.	16CJJ
*	*clefG2
=174	=174
8CC	16cLL
.	(16cn
8r	16B
.	16c
8GG'	16e
.	16cJJ)
8FF'L	16gLL
.	16c
8EE'	16a
.	16c
8DD'J	16b
.	16cJJ
=175	=175
8CC	16ccLL
.	(16cc
8r	16b
.	16cc
8GG'	16ee
.	16ccJJ)
8FF'L	16ggLL
.	16cc
8EE'	16aa
.	16cc
8DD'J	16bb
.	16ccJJ
=176	=176
4CC	4.ccc
8r	.
4.r	4.cc
=177	=177
2.r	2.c
=178	=178
*-	*-
